X:013
T:March TS.013
M:C|
L:1/8
Q:1/4=120
S:Thomas Sands’ MS,1810,Lincolnshire
R:march
C:Prefixed as ‘No.1′ in MS
O:England;Lincolnshire
Z:vmp.Ruairidh Greig, 2011
K:F
(cd/e/)|f>cA>c F>ag>f|g>fe>dc2B>A|B>cd>c B>AG>F|E>FG>EC2″_p”(c>B)|
A>cf>c B>df>d|e>cg>ef2d2|(3ege (3cec (3dfd (3=BdB|c2c>cc2:|
|:(g/f/e/d/)|c2g>g g>eb>g|a>fg>ef2f>e|d2(e>f) g>ab>d|
^c2A>AA2(f/e/f/g/)|a2f>dg2e>^c|a2f>dg2e>^c|d>ef>g f>ed>^c|
d2d>d”_f”d2 (g/f/e/d/)|c2c>c c>fc>A|B2B>B B>dB>G|A2F>A d>cB>A|
G2G>GG2(CD/E/)|”_ff”FF/F/ FF AA/A/ AA|cc/c/ ccf2c2|”triplet signs added”(3def (3gab a2″tr”g2|f2f>ff2:|]

